X:1
T:O Jesus, Joy of Loving Hearts
T:Text: Latin, 12th cent.; tr. Ray Palmer, 1858, alt. Tune: Henry Baker, 1854
T:LM QUEBEC www.hymnary.org/text/jesus_thou_joy_of_loving_hearts
T:O Jesus, Joy of Loving Hearts
T:This hymn is in the public domain. You may freely use this score for personal and congregational worship. If you reproduce the score, please credit Hymnary.org as the source. 
T:This hymn is in the public domain. You may freely use this score for personal and congregational worship. If you reproduce the score, please credit Hymnary.org as the source. 
Z:This hymn is in the public domain. You may freely use this score for personal and congregational worship. If you reproduce the score, please credit Hymnary.org as the source.
%%score ( 1 2 ) ( 3 4 )
L:1/8
M:3/4
K:Eb
V:1 treble nm="SOPRANO ALTO" snm="S. A."
V:2 treble 
V:3 bass nm="TENOR BASS" snm="T. B."
V:4 bass 
V:1
"^Capo 1:""^1""^2""^3""^4""^5""^Eb(D)" G2 G2 G2 | B4"^Cm(Bm)" E2 |"^Fm(Em)" F4"^Bb(A)" F2 | %3
w: O Je- sus,|joy of|lov- ing|
w: Your truth un-|changed has|ev- er|
w: We taste you,|ev- er-|liv- ing|
w: Our rest- less|spir- its|yearn for|
w: O Je- sus,|ev- er|with us|
"^Eb(D)" G6 | B2 B2 B2 |"^Fm(Em)" A4"^Bb(A)" F2 |"^Eb(D)" G4"^Ab(G)" A2 |"^Bb(A)" F6 | F2 F2 F2 | %9
w: hearts,|the fount of|life, the|light of|men,|from full- est|
w: stood;|you save all|those who|on you|call.|To those who|
w: Bread,|and long to|feast up-|on you|still;|we drink of|
w: you|wher- e'er our|change- ful|lot is|cast;|glad when you|
w: stay;|make all our|mo- ments|calm and|bright!|Chase the dark|
"^F7(E7)" F4 F2 |1 =A4 F2 |"^Bb(A)" B6 |"^Eb(D)" G2 G2"^Eb7(D)" G2 | (G2"^Abmaj7(Gmaj7)" F2) E2 | %14
w: bliss that|earth im-|parts|we turn un-|filled * to|
w: seek you,|you are|good;|to those who|find * you,|
w: you, the|foun- tain-|head,|our thirst to|quench, _ our|
w: smile on|us a-|new,|blest that our|faith * can|
w: night of|sin a-|way;|shed o'er the|world * your|
"^Eb/Bb(D/A)" E4"^Bb(A)" D2 |"^Eb(D)" E6 |] %16
w: you a-|gain.|
w: all in|all.|
w: souls to|fill.|
w: hold you|fast.|
w: ho- ly|light!|
V:2
 E2 E2 E2 | E4 E2 | E4 D2 | E6 | E2 E2 E2 | E4 D2 | E4 E2 | D6 | D2 D2 D2 | E4 E2 |1 E4 E2 | D6 | %12
 E2 D2 _D2 | C4 C2 | B,4 B,2 | B,6 |] %16
V:3
 B,2 B,2 B,2 | B,4 G,2 | C4 B,2 | B,6 | B,2 B,2 B,2 | C4 B,2 | B,4 C2 | B,6 | B,2 B,2 B,2 | %9
 C4 B,2 |1 C4 =A,2 | B,6 | E,2 B,2 B,2 | (B,2 A,2) G,2 | (F,2 G,2) A,2 | G,6 |] %16
V:4
 E,2 E,2 E,2 | G,,4 C,2 | A,,4 B,,2 | E,6 | G,2 G,2 G,2 | F,4 B,,2 | E,4 A,,2 | B,,6 | %8
 B,2 B,2 B,2 | =A,4 G,2 |1 F,4 F,2 | B,,6 | E,2 E,2 E,2 | A,,4 A,,2 | B,,4 B,,2 | E,6 |] %16

